X:307
T:Every Morning Mercies New
%%stretchlast false
M:4/4
L:1/4
K:G clef=C1
"^I"[G,DBg] "^IV²"[G,Ecg] "^I"[G,DBg] "^IV²"[Gec'] | "^I²"[DGdb]3/2 "^V7"[DFca]/ "^I"[GBg]2 | "^I¹"[B,Gdg] "^IV"[CGce] "^I"[G,GBd] "^I¹"[B,Gdg] | "^vi"[EG^cb] "^ii"[A,Gcb]/ "^ii7"[A,Gca]/ "^V"[DFda]2 | "^I¹"[B,Gdg] [B,Gdg] "^IV"[CGeg] "^IV¹"[EGec'] | "^III¹"[^DFBb]3/2 "^iii7¹"[DFBa]/ "^vi"[EGBg]2 | "^II"[A,A^ce] "^vii°7³"[G,Acf]/ "^ii7³"[G,Acg]/ "^iii²"[F,Ddb] "^III²"[F,^Dcb]/ "^V/vi²"[F,^Dca]/ | "^vi¹"[G,EBg] "^II7"[A,G^ce] "^V"[DFd]2 | "^V7¹"[FAdc'] [FAdc'] "^I"[Gdb] "^vi"[EGeg] | "^III"[B,F^db]3/2 "^iii7"[B,Fda]/ "^vi"[EGeg]2 | "^vii²"[^CGAf]3/2 "^IV7"[CG^Ae]/ "^I²"[DGBd] [DBdg] | [DBde] "^ii"[DAce]/ "^V7"[DAcf]/ "^I"[G,GBg]2 |]
